assets/icons/qvision/vpn_lock.svg

<svg xmlns="http://www.w3.org/2000/svg" height="24" viewBox="0 0 24 24" width="24"><path d="M0 0h24v24H0z" fill="none"/><path d="M22 4v-.5C22 2.12 20.88 1 19.5 1S17 2.12 17 3.5V4c-.55 0-1 .45-1 1v4c0 .55.45 1 1 1h5c.55 0 1-.45 1-1V5c0-.55-.45-1-1-1zm-.8 0h-3.4v-.5c0-.94.76-1.7 1.7-1.7s1.7.76 1.7 1.7V4zm-2.28 8c.04.33.08.66.08 1 0 2.08-.8 3.97-2.1 5.39-.26-.81-1-1.39-1.9-1.39h-1v-3c0-.55-.45-1-1-1H7v-2h2c.55 0 1-.45 1-1V8h2c1.1 0 2-.9 2-2V3.46c-.95-.3-1.95-.46-3-.46C5.48 3 1 7.48 1 13s4.48 10 10 10 10-4.48 10-10c0-.34-.02-.67-.05-1h-2.03zM10 20.93c-3.95-.49-7-3.85-7-7.93 0-.62.08-1.21.21-1.79L8 16v1c0 1.1.9 2 2 2v1.93z"/></svg>

<svg width="24" height="24" viewBox="0 0 24 24" fill="none" xmlns="http://www.w3.org/2000/svg">
<g clip-path="url(#clip0_147_6068)">
<path d="M22 4V3.5C22 2.12 20.88 1 19.5 1C18.12 1 17 2.12 17 3.5V4C16.45 4 16 4.45 16 5V9C16 9.55 16.45 10 17 10H22C22.55 10 23 9.55 23 9V5C23 4.45 22.55 4 22 4ZM21.2 4H17.8V3.5C17.8 2.56 18.56 1.8 19.5 1.8C20.44 1.8 21.2 2.56 21.2 3.5V4ZM18.92 12C18.96 12.33 19 12.66 19 13C19 15.08 18.2 16.97 16.9 18.39C16.64 17.58 15.9 17 15 17H14V14C14 13.45 13.55 13 13 13H7V11H9C9.55 11 10 10.55 10 10V8H12C13.1 8 14 7.1 14 6V3.46C13.05 3.16 12.05 3 11 3C5.48 3 1 7.48 1 13C1 18.52 5.48 23 11 23C16.52 23 21 18.52 21 13C21 12.66 20.98 12.33 20.95 12H18.92ZM10 20.93C6.05 20.44 3 17.08 3 13C3 12.38 3.08 11.79 3.21 11.21L8 16V17C8 18.1 8.9 19 10 19V20.93Z" fill="#323232"/>
</g>
<defs>
<clipPath id="clip0_147_6068">
<rect width="24" height="24" fill="white"/>
</clipPath>
</defs>
</svg>
